svgs/regular/rectangle-history-circle-user.svg

<svg xmlns="http://www.w3.org/2000/svg" viewBox="0 0 640 512"><!--! Font Awesome Pro 6.5.1 by @fontawesome - https://fontawesome.com License - https://fontawesome.com/license (Commercial License) Copyright 2023 Fonticons, Inc. --><path d="M64 464l284.5 0c12.3 18.8 28 35.1 46.3 48L64 512c-35.3 0-64-28.7-64-64V224c0-35.3 28.7-64 64-64l384 0c23.8 0 44.5 12.9 55.5 32.2c-2.5-.1-5-.2-7.5-.2c-26.2 0-51.1 5.7-73.4 16L64 208c-8.8 0-16 7.2-16 16l0 224c0 8.8 7.2 16 16 16zM440 80c13.3 0 24 10.7 24 24s-10.7 24-24 24L72 128c-13.3 0-24-10.7-24-24s10.7-24 24-24l368 0zM392 0c13.3 0 24 10.7 24 24s-10.7 24-24 24L120 48c-13.3 0-24-10.7-24-24s10.7-24 24-24H392zM352 368a144 144 0 1 1 288 0 144 144 0 1 1 -288 0zm221.7 80.7c-6.2-19-24-32.7-45.1-32.7H463.4c-21 0-38.9 13.7-45.1 32.7C438.5 468.1 465.8 480 496 480s57.5-11.9 77.7-31.3zM544 336a48 48 0 1 0 -96 0 48 48 0 1 0 96 0z"/></svg>

<svg xmlns="http://www.w3.org/2000/svg" viewBox="0 0 640 512"><!--! Font Awesome Pro 6.1.1 by @fontawesome - https://fontawesome.com License - https://fontawesome.com/license (Commercial License) Copyright 2022 Fonticons, Inc. --><path d="M63.1 464H348.5C360.7 482.8 376.5 499.1 394.8 512H64C28.65 512 0 483.3 0 448V224C0 188.7 28.65 160 64 160H448C471.8 160 492.5 172.9 503.5 192.2C501 192.1 498.5 192 496 192C469.8 192 444.9 197.7 422.6 208H64C55.16 208 48 215.2 48 224V448C48 456.8 55.16 464 64 464H63.1zM440 80C453.3 80 464 90.75 464 104C464 117.3 453.3 128 440 128H71.1C58.74 128 47.1 117.3 47.1 104C47.1 90.75 58.74 80 71.1 80H440zM392 0C405.3 0 416 10.75 416 24C416 37.25 405.3 48 392 48H119.1C106.7 48 95.1 37.25 95.1 24C95.1 10.75 106.7 0 119.1 0H392zM640 368C640 447.5 575.5 512 496 512C416.5 512 352 447.5 352 368C352 288.5 416.5 224 496 224C575.5 224 640 288.5 640 368zM528.6 416H463.4C442.4 416 424.5 429.7 418.3 448.7C438.5 468.1 465.8 480 496 480C526.2 480 553.5 468.1 573.7 448.7C567.5 429.7 549.6 416 528.6 416zM496 288C469.5 288 448 309.5 448 336C448 362.5 469.5 384 496 384C522.5 384 544 362.5 544 336C544 309.5 522.5 288 496 288z"/></svg>
